common/resources/fonts/svg/move-vertical.svg

<?xml version="1.0" encoding="UTF-8" standalone="no"?>
<svg width="1024px" height="1024px" viewBox="0 0 1024 1024" version="1.1" xmlns="http://www.w3.org/2000/svg" xmlns:xlink="http://www.w3.org/1999/xlink">
    <!-- Generator: Sketch 39.1 (31720) - http://www.bohemiancoding.com/sketch -->
    <title>move-vertical</title>
    <desc>Created with Sketch.</desc>
    <defs></defs>
    <g id="Page-1" stroke="none" stroke-width="1" fill="none" fill-rule="evenodd">
        <g id="move-vertical" fill="#000000">
            <path d="M572.768907,514.298627 C572.768907,547.453841 546.095163,574.127585 512.939949,574.127585 C479.784734,574.127585 453.11099,547.453841 453.11099,514.298627 C453.11099,481.143413 479.784734,454.469669 512.939949,454.469669 C546.095163,454.469669 572.768907,481.143413 572.768907,514.298627 Z M510.94594,209.409553 C511.441819,208.863482 512.68206,208.863482 513.177939,209.409553 L641.889878,373.877729 C642.261878,374.423799 641.641757,374.970098 640.773879,374.970098 L383.226121,374.970098 C382.358243,374.970098 381.738122,374.345855 382.110122,373.877729 L510.94594,209.409553 Z M510.94594,815.585438 C511.441819,816.131508 512.68206,816.131508 513.177939,815.585438 L641.889878,651.117261 C642.261878,650.571191 641.641757,650.024892 640.773879,650.024892 L383.226121,650.024892 C382.358243,650.024892 381.738122,650.649136 382.110122,651.117261 L510.94594,815.585438 Z" id="Combined-Shape"></path>
        </g>
    </g>
</svg>

<svg width="1024" height="1024" viewBox="0 0 1024 1024">
    <path d="M572.769 514.299c0 33.155-26.674 59.829-59.83 59.829-33.154 0-59.828-26.674-59.828-59.83 0-33.155 26.674-59.828 59.829-59.828s59.829 26.673 59.829 59.829zm-61.823-304.89c.496-.546 1.736-.546 2.232 0l128.712 164.47c.372.546-.248 1.092-1.116 1.092H383.226c-.868 0-1.488-.624-1.116-1.092L510.946 209.41zm0 606.176c.496.547 1.736.547 2.232 0L641.89 651.117c.372-.546-.248-1.092-1.116-1.092H383.226c-.868 0-1.488.624-1.116 1.092l128.836 164.468z" fill-rule="evenodd"/>
</svg>
